packages/core/src/svgs/tokens/branded/DEGO.svg

<svg xmlns="http://www.w3.org/2000/svg" width="24" height="24" fill="none" viewBox="0 0 24 24">
    <path fill="#FF5174" d="M3.25 2h4.375v4.375H3.25z"/>
    <path fill="#787878" d="m16.375 2 4.375 4.375h-4.375zm0 20 4.375-4.375h-4.375z"/>
    <path fill="#4F4F4F" d="M7.625 2h8.75v4.375h-8.75zM3.25 17.625h13.125V22H3.25z"/>
    <path fill="#FFD766" d="M3.25 6.375h4.375v5H3.25z"/>
    <path fill="#4F4F4F" d="M16.375 6.375h4.375v11.25h-4.375z"/>
    <path fill="#21D99D" d="M3.25 10.75h4.375v6.875H3.25z"/>
</svg>

<svg width="24" height="24" viewBox="0 0 24 24" fill="none" xmlns="http://www.w3.org/2000/svg">
<path d="M3.25 2H7.625V6.375H3.25V2Z" fill="#FF5174"/>
<path d="M16.375 2L20.75 6.375H16.375V2ZM16.375 22L20.75 17.625H16.375V22Z" fill="#787878"/>
<path d="M7.625 2H16.375V6.375H7.625V2ZM3.25 17.625H16.375V22H3.25V17.625Z" fill="#4F4F4F"/>
<path d="M3.25 6.375H7.625V11.375H3.25V6.375Z" fill="#FFD766"/>
<path d="M16.375 6.375H20.75V17.625H16.375V6.375Z" fill="#4F4F4F"/>
<path d="M3.25 10.75H7.625V17.625H3.25V10.75Z" fill="#21D99D"/>
</svg>
